assets/gi/gi-abstract-062.svg

<svg xmlns="http://www.w3.org/2000/svg" width="100%" height="100%" viewBox="-35.84 -35.84 583.68 583.68"><path d="m247.3347,24.0844-41.8596,8.225v138.0625l-39.8029-5.2875v-124.8438l-144.6721,28.4937 6.7568,95.175 219.5779,41.4188v-181.2437zm17.3312,0v181.2437l219.5783-41.4188 6.7558-95.175-144.6716-28.4937v124.8438l-39.95,5.2875v-138.0625l-41.7125-8.225zm-235.5875,157.5969 3.9658,55.5188 165.0875,45.825v96.6437l-160.0942-70.2062 5.2875,73.8781 204.0096,104.4281v-264.9625l-218.2563-41.125zm454.1374,0-218.5499,41.2719v264.9625l204.3033-104.5751 5.1404-73.7313-159.8,70.0594v-96.6437l164.9404-45.825 3.9658-55.5188z"/></svg>

<svg xmlns="http://www.w3.org/2000/svg" width="100%" height="100%" viewBox="-35.84 -35.84 583.68 583.68"><path d="M247.335 24.084l-41.86 8.225v138.063l-39.803-5.288V40.241L21 68.734l6.757 95.175 219.578 41.42V24.083zm17.33 0v181.244l219.58-41.419L491 68.734 346.328 40.241v124.843l-39.95 5.288V32.309l-41.712-8.225zM29.079 181.681l3.966 55.52 165.088 45.824v96.644L38.038 309.463l5.287 73.878 204.01 104.428V222.806L29.078 181.681zm454.138 0l-218.55 41.272v264.963L468.969 383.34l5.14-73.732-159.8 70.06v-96.644L479.25 237.2l3.966-55.519z"/></svg>
